!!!cenid: 16xx:1777
!!!COM: Jarzębski, Adam
!!!COM-rismID: pe30017782
!!!CDT:
!!!CNT:
!!!GTL: Canzoni e Concerti
!!!OTL: 4. Concerto Quarto
!!!PDT: 1627
!!!AGN:
!!!SMS-siglum: D-B
!!!SMS-shelfmark: Slg Bohn Ms.mus. 111
!!!SMS-shelfwork: 004 G
!!!SMS-variant:
!!!SMS-altvar:
!!!NIFC-rismSourceID: 1001062014
!!!NIFC-rismChildID: 1001062014
!!!NIFC-islandoraID:
!!!URL-pdf-islandora:
!!!URL-scan: https://digital.staatsbibliothek-berlin.de/werkansicht/?PPN=PPN1049147219
!!!ONB-nifc: UWAGA: Prima vox: s. 7-8, Seconda vox: s. 67, Basso continuo: s. 166-167. Uwaga: proszę wpisywać partie tylko występujące w danym koncercie i nazywać partie wg określeń podawanych przy danym utworze. Kody instr. dla humdrumowców podane zostaną na forum.
!!!AIN: 1 fagot 1 tromb
!!!key: g
**kern	**kern	**kern
*part3	*part2	*part1
*staff3	*staff2	*staff1
*I"Basſo Continuo.	*I"Fagotto ä Trombone	*I"Fagotto ò Trombone.
*I'bc	*I'b-trb	*I'fag
*	*ICbras	*ICww
*	*Itromb	*Ifagot
*IGcont	*	*
*clefF4	*clefF4	*clefF4
*k[b-]	*k[b-]	*k[b-]
*g:	*g:	*g:
*M2/1	*M2/1	*M2/1
*met(C|)	*met(C|)	*met(C|)
=1-	=1-	=1-
!!LO:TX:t=P:problem:all\right or middle	!	!
1G	0r	1G
!LO:TX:t=P:problem:kreska pseudotaktowa	!	!
1D	.	2.D/
.	.	4E\
=2-	=2-	=2-
2D/	2r	4F#X\
.	.	4D/
*	*	*2\right
2GG/	2GG/	2B-\
!LO:TX:t=P:problem:kreska pseudotaktowa	!	!
1D	2.D/	1A
.	4E\	.
=3-	=3-	=3-
2D/	4F#X\	2r
.	4D/	.
*	*2\right	*
2GG/	2B-\	1G
!LO:TX:t=P:problem:kreska pseudotaktowa	!	!
1D	1A	.
.	.	2F#X\
=4-	=4-	=4-
2GG/	2r	2G\
2GG/	1G	2GG/
!LO:TX:t=P:problem:kreska pseudotaktowa	!	!
1D	.	1D
.	2F#X\	.
=5-	=5-	=5-
2GG/	2G\	2GG/
!	!	!LO:TX:t=P:problem:kreska pseudotaktowa
2GG/	2GG/	2B-X\
!LO:TX:t=P:problem:kreska pseudotaktowa	!	!
1D	4D/	4A\
.	8D/L	8F#Xi\L
.	8E/J	8G\
.	8F#X\L	8A\
.	8G\	8B-\
.	8A\	8c\
!	!	!LO:TX:t=P:problem:kreska pseudotaktowa
.	8F#Xi\J	8A\J
=6-	=6-	=6-
!	!	!LO:N:acc=#
1GG#Xi	2G#y\	2Bn\
.	2r	2r
*	*	*custos:d
!	!	!LO:LB:g=original
*2\right	*	*clefC3
2G\	2GG/	2g\
4G\	4GG/	4g\
!LO:TX:t=P:problem:kreska pseudotaktowa	!	!
4G\	4GG/	4g\
*custos:G	*	*
!LO:LB:g=original	!	!
=7-	=7-	=7-
2.G\	2.GG/	2.g\
4D/	4D/	4f\
*	*custos:C	*
!	!LO:LB:g=original	!
4C/	4C/	4e-X\
4BB-/	4BB-/	4d\
!LO:TX:t=P:problem:kreska pseudotaktowa	!	!
2F\	2Fny\	2c/
=8-	=8-	=8-
1BB-	4.BB-/	8B-y/L
.	.	8c/
.	.	8d/
.	8C/	8eny/J
.	8D/L	4f\
.	8BB-/	.
!	!	!LO:TX:t=P:problem:kreska pseudotaktowa:między nutą a kropką
.	8D/	4Fny/
.	8E/J	.
!	!	!LO:N:vis=4:xstem
2FF/	4F\	8G/
.	.	8G/L
.	8FF/L	8A/
.	8GG/	8B-/J
4AA/	8AA/	8c\L
.	8BB-/	8d\
2C/	8C/	8e\
!	!	!LO:TX:t=P:problem:kreska pseudotaktowa
.	8D,/J	8f\J
=9-	=9-	=9-
.	8E\L	4g\
.	8C\	.
4C/	8E\	4.G/
.	8F\J	.
!LO:TX:t=P:problem:kreska pseudotaktowa	!	!
2GGny/	4Gny\	.
.	.	8A/L
!	!LO:TX:t=P:problem:oddech? między nutą a kropką	!
.	4.GG,/	8B-/
.	.	8c/J
2GG/	.	4d\
.	8AA/L	.
.	8BB-/	4.D/
.	8GG/J	.
4BB-/	8BB-/L	.
.	8C/	8E/L
4D/	8D/	8F/
!	!	!LO:TX:t=P:problem:kreska pseudotaktowa
.	8E,/J	8G/J
=10-	=10-	=10-
4F\	8F\L	8A/L
.	8G\	8B-/
2A\	8A\	8c/
!	!LO:N:acc=#	!
.	8Bni\J	8d/J
.	4c#Xi\	4e\
!	!	!LO:TX:t=P:problem:kreska pseudotaktowa
4D/	4d,\	4f\
*	*	*custos:c#
!	!	!LO:LB:g=original
4A\	4A\	4c#X/
4B-\	4B-y\	2d\
4G\	4G\	.
4A\	4A\	4c#X/
=11-	=11-	=11-
0D	0D	1d
.	.	4r
.	.	4d\
.	.	4d\
.	.	4d\
*	*clefC4	*
=12-	=12-	=12-
2G\	4r	4B-/
.	4G/	4G/
4G\	4G/	4d\
4G\	4G/	4e\
*custos:F	*custos:F	*
!LO:LB:g=original	!LO:LB:g=original	!
4F\	4F/	2f\
4D/	4D/	.
!	!	!LO:TX:t=P:problem:kreska pseudotaktowa
4A\	4A/	[2e\
!LO:TX:t=P:problem:kreska pseudotaktowa	!	!
!LO:N:acc=#	!LO:N:acc=#	!
4Bn\	4Bn\	.
=13-	=13-	=13-
2.c\	8cny\L	8e\L]
.	8d\	8f\
.	8e\	8g\
.	8d\J	8f\J
.	4c\	4e\
!	!LO:N:acc=#	!
8Bny\L	8Bn\L	8d\L
!	!	!LO:TX:t=P:problem:kreska pseudotaktowa
8A\J	8A\J	8cny\J
*	*clefF4	*
!	!LO:SIC:s=8G#\	!LO:N:acc=#
2.G#Xi\	8G\L	8Bn/L
.	8A\	8c/
.	8B\	8d/
.	8A\J	8c/J
!	!LO:SIC:s=4G#\	!LO:N:acc=#
.	4G\	4Bni/
8F\L	8F\L	8A/L
!LO:TX:t=P:problem:kreska pseudotaktowa	!	!
!	!	!LO:TX:t=P:problem:kreska pseudotaktowa
8E-Xi\J	8E-Xi\J	8G/J
=14-	=14-	=14-
4D/	4D/	4F#X/
4E-X\	4E-X\	2G/
4C/	4C/	.
4D/	4D/	4F#i/
0GG	2.GG/	4G/
.	.	4d\
.	.	4B-y/
.	4r	4G/
*	*	*custos:d
!	!	!LO:LB:g=original
=15-	=15-	=15-
.	4D/	1d
.	4BB-/	.
.	4GG/	.
.	2.G\	.
!LO:TX:t=P:problem:kreska pseudotaktowa	!	!
1GG	.	4r
.	.	4d\
.	8r	4B-/
.	8D/L	.
.	8BB-/	4G/
.	8GG/J	.
=16-	=16-	=16-
2D/	2G\	2d\
*	*	*clefC4
2GG/	8r	8r
.	8D/L	8d\L
.	8D/	8B-\
.	8C/J	8G\J
2D/	8BB-/L	2d\
.	16C/L	.
.	16BB-/JJ	.
.	8.AA/L	.
.	16GG/Jk	.
!LO:TX:t=P:problem:kreska pseudotaktowa	!	!LO:TX:t=P:problem:kreska pseudotaktowa
2GG/	2D/	2r
=17-	=17-	=17-
2D/	2r	8r
.	.	8d\L
.	.	8d\
.	.	8c\J
*	*clefC4	*
2GG/	8r	8B-\L
.	8d\L	16c\L
.	.	16B-\JJ
.	8d\	8.A/L
.	8c\J	.
!	!	!LO:TX:t=P:problem:kreska pseudotaktowa
.	.	16G/Jk
*	*custos:B-	*
!	!LO:LB:g=original	!
0.BB-	8B-\L	2D/
.	16c\L	.
.	16B-\JJ	.
.	8.A/L	.
.	16G/Jk	.
.	2d\	2r
=18-	=18-	=18-
!LO:TX:t=P:problem:kreska pseudotaktowa	!	!
.	2r	4r
.	.	4f\
*	*clefF4	*
.	4r	4d\
!	!	!LO:TX:t=P:problem:kreska pseudotaktowa
.	4F\	4B-\
.	4D/	2f\
.	4BB-/	.
.	2F\	2r
*custos:FF	*	*
!LO:LB:g=original	!	!
=19-	=19-	=19-
2FF/	2r	8r
.	.	8f\L
.	.	8f\
.	.	8e-Xi\J
*	*	*custos:d
!	!	!LO:LB:g=original
2BB-/	8r	8d\L
.	8F\L	16e-Xi\L
.	.	16d\JJ
.	8F\	8.c\L
.	8E-X\J	.
!	!	!LO:TX:t=P:problem:kreska pseudotaktowa
.	.	16B-\Jk
2FF/	8D\L	2f\
.	16E-Xi\L	.
.	16D\JJ	.
.	8.C/L	.
.	16BB-/Jk	.
!LO:TX:t=P:problem:kreska pseudotaktowa	!	!
2BB-/	8F\L	2r
.	8d\	.
.	8d\	.
.	8c\J	.
=20-	=20-	=20-
4D/	8B-\L	8r
.	16c\L	8f\L
.	16B-\JJ	.
4BB-/	8.A\L	8f\
.	.	8e-Xi\J
.	16G,\Jk	.
2BB-/	2F\	8d\L
.	.	16e-Xi\L
.	.	16d\JJ
.	.	8.c\L
.	.	16B-\Jk
2FF/	1r	4A/
.	.	4c\
!LO:TX:t=P:problem:kreska pseudotaktowa	!	!
2FF/	.	4A/
!	!	!LO:TX:t=P:problem:kreska pseudotaktowa
.	.	4Fny/
=21-	=21-	=21-
2C/	4r	2c\
.	4c\	.
2FF/	4A\	2r
.	4F\	.
2C/	2C/	8r
.	.	8c\L
.	.	8c\
.	.	8B-\J
!LO:TX:t=P:problem:kreska pseudotaktowa	!	!
2FF/	2r	8A/L
.	.	16B-/L
.	.	16A/JJ
.	.	8.G/L
!	!	!LO:TX:t=P:problem:kreska pseudotaktowa
.	.	16F/Jk
=22-	=22-	=22-
2.FF/	8r	8c\L
.	8c\L	8A\
.	8c\	8A\
.	8B-\J	8G\J
.	8A\L	8F/L
.	16B-\L	16G/L
.	16A\J	16F/JJ
4GG/	8.G\	8.E/L
!	!	!LO:TX:t=P:problem:kreska pseudotaktowa
.	16F\Jk	16D/Jk
*	*	*clefF4
4AA/	4Eny\	4AA/
4BB-/	4F\	4FF/
4GG/	2E\	4GG/
4AA/	.	4AA/
=23-	=23-	=23-
1DD	1D	2DD/
*	*	*clefC3
.	.	4r
.	.	4d\
*	*clefC4	*
2.GG/	2r	2d\
.	4r	2d\
!LO:TX:t=P:problem:kreska pseudotaktowa	!	!
4Gny\	4G/	.
=24-	=24-	=24-
2G\	2G/	2.g\
2G\	2G/	.
.	.	4f\
*custos:c	*	*
!LO:LB:g=original	!	!
2.c\	2.c\	4eny\
.	.	8g\L
.	.	8f\J
.	.	4e\
!LO:TX:t=P:problem:kreska pseudotaktowa	!	!LO:TX:t=P:problem:kreska pseudotaktowa
4B-y\	4B-,\	4d\
=25-	=25-	=25-
4.A\	8A\L	2c/
.	16A\L	.
.	16B-\J	.
.	8c\	.
8G\	8B-\J	.
2F\	8A/L	2r
.	8G/	.
.	8F/	.
.	8E,/J	.
2.F\	2F/	8r
.	.	16A/LL
.	.	16B-/J
.	.	8c/
.	.	8B-/
.	2r	8A/
.	.	8G/
!LO:TX:t=P:problem:kreska pseudotaktowa	!	!
4D/	.	8F/
!	!	!LO:TX:t=P:problem:kreska pseudotaktowa
.	.	8E/J
*	*clefF4	*
=26-	=26-	=26-
4.D/	8r	2F/
.	16D\LL	.
.	16E\J	.
.	8F\	.
8C/	8E\J	.
2BB-/	8D/L	2r
.	8C/	.
.	8BB-/	.
.	8AA,/J	.
4.BB-/	2BB-/	8r
.	.	16B-/LL
.	.	16c/J
.	.	8d/
8AA/	.	8c/
!LO:TX:t=P:problem:kreska pseudotaktowa	!	!
2GG/	2r	8B-/
.	.	8A/
.	.	8G/
.	.	8F/J
*	*	*custos:G
!	!	!LO:LB:g=original
=27-	=27-	=27-
!	!	!LO:TX:t=P:problem:mixed beam
4GG/	8r	8G/L
*	*	*clefF4
.	16B-\LL	16G\L
.	16c\J	16A\JJ
4.G\	8d\	8B-X\L
.	8c\J	8A\
.	8B-\L	8G\
8F\L	8A\	8F\
8E-Xi\	8G\	8E-X\
!	!	!LO:TX:t=P:problem:kreska pseudotaktowa
8D\J	8F\J	8D\J
!	!LO:LB:g=original	!
2E-X\	2G\	2E-X\
!LO:TX:t=P:problem:kreska pseudotaktowa	!	!
2C/	4c\	2C/
.	4B-\	.
=28-	=28-	=28-
2.D/	4.A\	4D/
.	.	8F\L
.	8G\	8Eny\J
.	8F\L	8D/L
.	8E\	8C/
4GG/	8D\	8BB-/
.	8C\J	8AA/J
4GG/	4BB-/	4GG/
2G\	2G\	2B-\
8F\L	8F\L	8A\L
!LO:TX:t=P:problem:kreska pseudotaktowa	!	!
8E-Xi\J	8E-Xi\J	8G\J
*custos:D	*	*
!LO:LB:g=original	!	!
=29-	=29-	=29-
4D/	4D/	4F#X\
4C/	4E-X\	2G\
2D/	2D/	.
!	!	!LO:TX:t=P:problem:kreska pseudotaktowa
.	.	4F#Xi\
2.GG/	2GG/	2G\
.	4r	2r
!LO:TX:t=P:problem:kreska pseudotaktowa	!	!
4G\	4G\	.
*	*	*clefC4
=30-	=30-	=30-
2.G\	2.G\	2r
.	.	2d\
4A\	4A\	.
2.B-\	2.B-\	2.d\
8A\L	8A\L	4e\
!LO:TX:t=P:problem:kreska pseudotaktowa	!	!
8G\J	8G\J	.
*	*	*custos:f
!	!	!LO:LB:g=original
=31-	=31-	=31-
4F\	4F\	2.f\
4Eny\	4Eny\	.
4D/	4D/	.
8C/L	8C/L	8e\L
8BB-/J	8BB-/J	8d\J
4AA/	4AA/	4c#X\
4GG/	4GG/	2d\
!LO:TX:t=P:problem:kreska pseudotaktowa	!	!
2AA/	2AA/	.
!	!	!LO:TX:t=P:problem:kreska pseudotaktowa
.	.	4c#Xi\
=32-	=32-	=32-
4DD/	4DD/	2.d\
2D/	2D/	.
4E\	4E,\	8cny\L
.	.	8B-\J
2.F\	8F\L	8A/L
.	8G\	8B-/
.	8A\	8c/
.	8G\J	8B-/J
.	8F\L	8A/L
.	8E\	8G/
!LO:TX:t=P:problem:kreska pseudotaktowa	!	!
4D/	8D\	8Fny/
!	!	!LO:TX:t=P:problem:kreska pseudotaktowa
.	8C\J	8E/J
*	*custos:BB-	*
!	!LO:LB:g=original	!
=33-	=33-	=33-
!LO:TX:t=P:problem:kreski wskazujące na inne dźwięki?	!	!
2D/	8BB-/L	8D/L
.	8C/	8E/
.	8D/	8F/
.	8E/J	8G/
2G\	8F\L	8A/
.	8G\	8B-/
.	8A\	8c/
.	8F\J	8A/J
*custos:G	*	*
!LO:LB:g=original	!	!
2.G\	8G\L	8B-\L
.	8A\	8c\
.	8B-\	8d\
.	8A\J	8c\J
.	4G\	4B-\
8F\L	8F\L	8A/L
!LO:TX:t=P:problem:kreska pseudotaktowa	!	!
!	!	!LO:TX:t=P:problem:kreska pseudotaktowa
8E-Xi\J	8E-Xi,\J	8G/J
=34-	=34-	=34-
4D/	4D/	4F#X/
4C/	4C/	2G/
2D/	2D/	.
.	.	4F#X/
!	!LO:TX:t=P:problem:mixed beam	!
2GG/	8GG/L	1G
.	8G\J	.
.	8C/L	.
.	8BB-/J	.
!LO:TX:t=P:problem:kreska pseudotaktowa	!	!
2GG/	16GG/LL	.
.	16AA/	.
.	16BB-/	.
.	16C/JJ	.
.	16D\LL	.
.	16Eny\	.
.	16F\	.
.	16G\JJ	.
=35-	=35-	=35-
2AA/	4A\	2r
.	4AA/	.
2DD/	2D/	8r
.	.	8d\
.	.	8A/L
!	!	!LO:TX:t=P:problem:kreska pseudotaktowa
.	.	8Fny/J
2D/	1r	16D/LL
.	.	16E/
.	.	16F/
.	.	16G/
.	.	16A/
.	.	16B-/
.	.	16c/
.	.	16d/JJ
!LO:TX:t=P:problem:kreska pseudotaktowa	!	!
2Eny\	.	4e\
!	!	!LO:TX:t=P:problem:kreska pseudotaktowa
.	.	4E/
=36-	=36-	=36-
!LO:TX:t=P:problem:poprawione nuty na dole?	!	!
!LO:TX:a:t=NB. vide intra	!	!
2.AA/	8r	2A/
.	8A\L	.
.	8E\	.
.	8C#Xi\J	.
.	2AA/	8r
.	.	8c\L
4D/	.	8A\
.	.	8F\J
*	*clefC4	*
*	*custos:d	*
!	!LO:LB:g=original	!
4BB-/	8r	2D/
.	8d\L	.
4GG/	8B-\	.
.	8G\J	.
4C/	2E/	8r
.	.	8e\L
!LO:TX:t=P:problem:kreska pseudotaktowa tylko w pierwszej wersji	!	!
!LO:TX:t=P:problem:kreska pseudotaktowa	!	!
4AA/	.	8c\
!	!	!LO:TX:t=P:problem:kreska pseudotaktowa
.	.	8A\J
=37-	=37-	=37-
4D/	8r	2F/
.	8f\L	.
4BB-/	8d\	.
.	8B-\J	.
4E-X\	2G/	8r
.	.	8g\L
4C/	.	8e-Xi\
.	.	8c\J
*	*clefF4	*
4D/	8r	2A/
.	8F\L	.
4BB-/	8D\	.
.	8BB-\J	.
2GG/	2GG,/	8r
.	.	8d\L
!	!	!LO:N:acc=#
.	.	8Bn\
.	.	8G\J
*custos:C	*	*
!LO:LB:g=original	!	!
=38-	=38-	=38-
!	!	!LO:TX:t=P:problem:mixed beam
4C/	8r	8E/L
.	8c\L	8eny\
4FF/	8A\	8c\
.	8F\J	8A\J
!	!	!LO:TX:t=P:problem:mixed beam
4DD/	2D,/	8F/L
.	.	8f\
2GG/	.	8d\
!	!	!LO:TX:t=P:problem:kreska pseudotaktowa
.	.	8B-y\J
.	8r	2G/
.	8G\L	.
4GG/	8D\	.
.	8BB-\J	.
!LO:TX:t=P:problem:kreska pseudotaktowa	!	!
2GG/	16GG/LL	2.g\
.	16AA/	.
.	16BB-/	.
.	16Cny/JJ	.
.	16D\LL	.
.	16E\	.
.	16F\	.
.	16G\JJ	.
=39-	=39-	=39-
2AA/	2A\	.
.	.	4f\
2BB-/	2B-\	4f\
.	.	8e\L
!	!	!LO:TX:t=P:problem:kreska pseudotaktowa
.	.	8d\J
*	*	*custos:e
!LO:TX:t=P:problem:kreska pseudotaktowa	!	!LO:LB:g=original
1AA	8A\L	2e\
.	16G\L	.
.	16F\JJ	.
.	16E\LL	.
.	16D\	.
.	16C\	.
.	16BB-\JJ	.
*	*custos:AA	*
!	!LO:LB:g=original	!
.	8AA/L	2e\
.	8GG/J	.
.	4AA,/	.
=40-	=40-	=40-
2D/	4D/	1d
.	4d\	.
4BB-/	4B-\	.
4GG/	4G,\	.
!LO:TX:t=P:problem:kreska pseudotaktowa	!	!
1D	8d\L	1r
.	16c\L	.
.	16B-\JJ	.
.	16A\LL	.
.	16G\	.
.	16F\	.
.	16E\JJ	.
.	8D/L	.
.	8C/J	.
.	4D/	.
=41-	=41-	=41-
2GG/	2GG/	4r
.	.	4g\
2C/	2r	4e-X\
!	!	!LO:TX:t=P:problem:kreska pseudotaktowa
.	.	4c\
!LO:TX:t=P:problem:kreska pseudotaktowa	!	!
1GG	1r	8g\L
.	.	16f\L
.	.	16e-Xi\
.	.	16d\
.	.	16c\
.	.	16B-\
.	.	16A\JJ
.	.	8G/L
.	.	8F/J
!	!	!LO:TX:t=P:problem:kreska pseudotaktowa
.	.	4G/
=42-	=42-	=42-
1C	4r	1C
.	4G\	.
.	4E\	.
.	4C/	.
2GG/	8G\L	1r
.	16F\L	.
.	16E\JJ	.
.	16D/LL	.
.	16C/	.
.	16BB-/	.
.	16AA/JJ	.
!LO:TX:t=P:problem:kreska pseudotaktowa	!	!
2GG/	8GG/L	.
.	8FF/J	.
.	4GG,/	.
=43-	=43-	=43-
2C/	2C/	4r
.	.	4c\
2FF/	2r	4A/
!	!	!LO:TX:t=P:problem:kreska pseudotaktowa
.	.	4F/
!LO:TX:t=P:problem:kreska pseudotaktowa	!	!
1C	1r	8c\L
.	.	16B-\L
.	.	16A\JJ
.	.	16G/LL
.	.	16F/
.	.	16E/
.	.	16D/JJ
.	.	8C/L
.	.	8BB-/J
.	.	4C/
*custos:FF	*	*
!LO:LB:g=original	!	!
=44-	=44-	=44-
2FF/	4r	1F
.	4c\	.
2FF/	4A\	.
.	4F\	.
!LO:TX:t=P:problem:kreska pseudotaktowa	!	!
1C	8c\L	1r
.	16B-\L	.
.	16A\JJ	.
.	16G\LL	.
.	16F\	.
.	16E\	.
.	16D\JJ	.
.	8C/L	.
.	8BB-/J	.
.	4C/	.
=45-	=45-	=45-
0FF	8F\L	8r
.	8A\	8c\L
.	8A\	8c\
.	8F\J	8A\J
*	*custos:A	*custos:F
!	!LO:LB:g=original	!LO:LB:g=original
.	8A\L	8F/L
.	8c\	8A/
.	8c\	8A/
!	!	!LO:TX:t=P:problem:kreska pseudotaktowa
.	8A,\J	8F/J
.	8F\L	8A\L
.	8A\	8c\
.	8A\	8c\
.	8F\J	8A\J
.	8.A\L	8.c\L
.	16G\L	16B-\Jk
.	16F\	16A/LL
.	16E\	16G/
.	16D\	16F/
!	!	!LO:TX:t=P:problem:kreska pseudotaktowa
.	16C,\JJ	16E/JJ
=46-	=46-	=46-
!LO:TX:t=P:problem:kreska pseudotaktowa	!LO:TX:t=P:problem:mixed beam	!LO:TX:t=P:problem:mixed beam
0GG	8BB-/L	8D/L
.	8B-\	8d\
.	8B-\	8d\
.	8G\J	8B-\J
.	8B-\L	8G/L
.	8d\	8B-/
.	8d\	8B-/
!	!	!LO:TX:t=P:problem:kreska pseudotaktowa
.	8B-,\J	8G/J
.	8G\L	8B-\L
.	8B-\	8d\
.	8B-\	8d\
.	8G\J	8B-\J
.	8.B-\L	8.d\L
.	16A\L	16c\Jk
.	16G\	16B-\LL
.	16F\	16A\
.	16E\	16G\
!	!	!LO:TX:t=P:problem:kreska pseudotaktowa
.	16D,\JJ	16F\JJ
=47-	=47-	=47-
!	!	!LO:TX:t=P:problem:mixed beam
0AA	8C/	8E/L
*	*clefC4	*
.	8c\L	8eny\
.	8c\	8e\
.	8A\J	8c\J
.	8c\L	8A\L
.	8e\	8c\
.	8e\	8c\
!	!	!LO:TX:t=P:problem:kreska pseudotaktowa
.	8c\J	8A\J
*	*	*custos:c
!	!	!LO:LB:g=original
.	8A\L	8c\L
.	8c\	8e\
.	8c\	8e\
.	8A\J	8c\J
.	8.c\L	8.e\L
.	16B-\Jk	16d\Jk
.	16A/LL	16c\LL
.	16G/	16B-\
.	16F/	16A\
!	!	!LO:TX:t=P:problem:kreska pseudotaktowa
.	16E,/JJ	16G\JJ
*	*custos:D	*
!	!LO:LB:g=original	!
=48-	=48-	=48-
!LO:TX:t=P:problem:kreska pseudotaktowa	!LO:TX:t=P:problem:mixed beam	!LO:TX:t=P:problem:mixed beam
0BB-	8D/L	8F/L
.	8d\	8f\
.	8d\	8f\
.	8B-\J	8d\J
.	8d\L	8B-\L
.	8f\	8d\
.	8f\	8d\
!	!	!LO:TX:t=P:problem:kreska pseudotaktowa
.	8d,\J	8B-\J
.	8B-\L	8d\L
.	8d\	8f\
.	8d\	8f\
.	8B-\J	8d\J
.	8.d\L	8.f\L
.	16c\Jk	16e-Xi\Jk
.	16B-/LL	16d\LL
.	16A/	16c\
.	16G/	16B-\
.	16F/JJ	16A\JJ
=49-	=49-	=49-
!	!LO:TX:t=P:problem:mixed beam	!LO:TX:t=P:problem:mixed beam
0C	8E/L	8G/L
.	8e\	8g\
.	8e\	8g\
.	8c\J	8eny\J
.	8e\L	8c\L
.	8g\	8e\
.	8g\	8e\
!	!	!LO:TX:t=P:problem:kreska pseudotaktowa
.	8e\J	8c\J
.	8c\L	8e\L
.	8e\	8g\
.	8e\	8g\
.	8c\J	8e\J
.	8.e\L	8.g\L
.	16d\Jk	16f\Jk
.	16c\LL	16e\LL
.	16B-\	16d\
.	16A\	16c\
!	!	!LO:TX:t=P:problem:kreska pseudotaktowa
.	16G\JJ	16B-\JJ
=50-	=50-	=50-
4D/	4F#X/	4A/
4GG/	2G/	4B-\
2D/	.	2A/
.	4F#Xi/	.
2GG/	2G/	2G/
!LO:TX:t=P:problem:kreska pseudotaktowa	!	!
2r	2r	2r
*	*clefF4	*clefC3
!	!	!LO:PB:g=original
=51-	=51-	=51-
2GG/	2GG/	2g\
4GG/	4GG/	4g\
4GG/	4GG/	4g\
2.GG/	2.GG/	2.g\
!LO:TX:t=P:problem:kreska pseudotaktowa	!	!
4D/	4D/	4f\
*	*custos:C	*
!	!LO:LB:g=original	!
=52-	=52-	=52-
4C/	4C/	4e-X\
4BB-/	4BB-/	4d\
!	!	!LO:TX:t=P:problem:kreska pseudotaktowa
2FF/	2Fny\	2c/
*custos:BB-	*	*
!LO:LB:g=original	!	!
2BB-/	2BB-/	2B-/
!LO:TX:t=P:problem:kreska pseudotaktowa	!	!
2r	2r	2r
=53-	=53-	=53-
2BB-/	2BB-/	2f\
4BB-/	4BB-/	4f\
4BB-/	4BB-/	4f\
2.D/	2.D/	2.f\
!LO:TX:t=P:problem:kreska pseudotaktowa	!	!LO:TX:t=P:problem:kreska pseudotaktowa
4F\	4F\	4c/
=54-	=54-	=54-
4C/	4C/	4e-X\
4C/	4C/	4e-\
!	!	!LO:TX:t=P:problem:kreska pseudotaktowa
2G\	2G\	2d\
2C/	2C/	2c/
!LO:TX:t=P:problem:kreska pseudotaktowa	!	!
2r	2r	2r
*	*	*custos:d
!	!	!LO:LB:g=original
=55-	=55-	=55-
2BB-/	2BB-/	2d\
4BB-/	4BB-/	4d\
4BB-/	4BB-/	4d\
2.BB-/	2.BB-/	2.d\
!LO:TX:t=P:problem:kreska pseudotaktowa	!	!
4FF/	4FF/	4c/
=56-	=56-	=56-
4GG/	4GG/	4B-/
4C/	4C/	4c/
2D/	2D/	2A/
2GG/	2GG,/	1G
4G\	4G\	.
!LO:TX:t=P:problem:kreska pseudotaktowa	!	!
4G\	4G\	.
*custos:G	*	*
!LO:LB:g=original	!	!
=57-	=57-	=57-
2.G\	2.G\	1r
4F\	4F\	.
4E-X\	4E-X\	2g\
4D/	4D/	.
1C/	1C/	4g\
.	.	4g\
=58-	=58-	=58-
.	.	2.g\
!LO:N:acc=#	!LO:N:acc=#	!
2BBn/	2BBn/	.
.	.	4f\
0C	0C	4e-X\
.	.	4d\
.	.	1e-X\
=59-	=59-	=59-
.	.	4d\
.	.	4c/
!	!	!LO:TX:b:i:t=finis.
0.GGl;;	0.GGl;;	0.dl;;
==	==	==
*-	*-	*-
!!!system-decoration: [(s1,s2)]s3
!!!RDF**kern: i = editorial accidental
!!!RDF**kern: l = terminal long
!!!ENC: Filip Voros
!!!END: 2022-10-31
!!!ENC: Natalia Wrzos
!!!END: 2022-11-09
!!!YEC: Copyright 2022 Narodowy Instytut Fryderyka Chopina (https://polishscores.org)
!!!YEM: License CC-BY-4.0 (https://creativecommons.org/licenses/by/4.0)
